remix/Business/attachment-fill.svg

<svg viewBox="0 0 24 24" fill="currentColor" xmlns="http://www.w3.org/2000/svg"><path d="M20.997 2.9918L20.9998 21.0082C20.9998 21.5447 20.5552 22 20.0066 22H3.9934C3.44495 22 3 21.556 3 21.0082V2.9918C3 2.45531 3.44468 2 3.99322 2H20.0036C20.5519 2 20.9969 2.44405 20.997 2.9918ZM9 13V9C9 8.44772 9.44772 8 10 8C10.5523 8 11 8.44772 11 9V13C11 13.5523 11.4477 14 12 14C12.5523 14 13 13.5523 13 13V9C13 7.34315 11.6569 6 10 6C8.34315 6 7 7.34315 7 9V13C7 15.7614 9.23858 18 12 18C14.7614 18 17 15.7614 17 13V8H15V13C15 14.6569 13.6569 16 12 16C10.3431 16 9 14.6569 9 13Z"/></svg>

<svg viewBox="0 0 24 24" xmlns="http://www.w3.org/2000/svg"><path fill="none" d="M0 0h24v24H0Z"/><path d="M20.997 2.992l0 18.016v0c-.01.54-.45.98-1 .99H3.97v-.001c-.55 0-1-.45-1-1V2.98h0c0-.55.44-.99.99-1h16.01c.54 0 .99.44.99.992ZM9 13V9v0c0-.56.44-1 1-1 .55 0 1 .44 1 1v4 0c0 .55.44 1 1 1 .55 0 1-.45 1-1V9v0c0-1.66-1.35-3-3-3C8.34 6 7 7.34 7 9v4 0c0 2.76 2.23 5 5 5 2.76 0 5-2.24 5-5V8h-2v5 0c0 1.65-1.35 3-3 3 -1.66 0-3-1.35-3-3Z"/></svg>
